assets/images/flags/1x1/tk.svg

<?xml version="1.0" encoding="UTF-8" standalone="no"?>
<!-- Created with Sodipodi ("http://www.sodipodi.com/") -->
<svg id="svg1" xmlns:rdf="http://www.w3.org/1999/02/22-rdf-syntax-ns#" xmlns="http://www.w3.org/2000/svg" height="512" width="512" version="1.1" xmlns:cc="http://creativecommons.org/ns#" xmlns:dc="http://purl.org/dc/elements/1.1/">
 <metadata id="metadata3772">
  <rdf:RDF>
   <cc:Work rdf:about="">
    <dc:format>image/svg+xml</dc:format>
    <dc:type rdf:resource="http://purl.org/dc/dcmitype/StillImage"/>
   </cc:Work>
  </rdf:RDF>
 </metadata>
 <defs id="defs3">
  <clipPath id="clipPath6050" clipPathUnits="userSpaceOnUse">
   <rect id="rect6052" fill-opacity="0.67" height="512" width="512" y="0" x="0"/>
  </clipPath>
 </defs>
 <g id="flag" clip-path="url(#clipPath6050)">
  <rect id="rect124" height="512" width="1024" y="0" x="0" fill="#006"/>
  <path id="path146" d="m0 0v28.622l454.76 227.38h57.24v-28.62l-454.76-227.38h-57.24zm512 0v28.621l-454.76 227.38h-57.24v-28.62l454.76-227.38h57.24z" fill="#fff"/>
  <path id="path136" d="m213.33 0v256h85.333v-256h-85.333zm-213.33 85.333v85.333h512v-85.333h-512z" stroke-width="1pt" fill="#fff"/>
  <path id="path141" d="m0 102.4v51.2h512v-51.2h-512zm230.4-102.4v256h51.2v-256h-51.2z" stroke-width="1pt" fill="#c00"/>
  <path id="path150" d="m0 256 170.67-85.333h38.162l-170.67 85.33h-38.16zm0-256l170.67 85.333h-38.162l-132.51-66.252v-19.081zm303.17 85.333 170.67-85.333h38.16l-170.67 85.333h-38.162zm208.83 170.67-170.67-85.33h38.162l132.51 66.25v19.08z" fill="#c00"/>
  <g id="g5930" transform="matrix(.69449 0 0 .69449 -177.29 177.11)">
   <g id="g141" transform="scale(8.5333)">
    <path id="path133" d="m90 7.995 0.89919 2.7674h2.9098l-2.3541 1.7104 0.89919 2.7674-2.354-1.709-2.3541 1.7104 0.89919-2.7674-2.3541-1.7104h2.9098z" fill="#fff"/>
    <path id="path132" d="m90 8.8456 0.7082 2.1796h2.2918l-1.8541 1.3471 0.7082 2.1796-1.854-1.347-1.854 1.347 0.708-2.18-1.854-1.347h2.2918z" fill="#c00"/>
   </g>
   <g id="g132" transform="matrix(8.5333 0 0 8.5333 -118.3 119.03)">
    <path id="path134" d="m90 7.995 0.89919 2.7674h2.9098l-2.3541 1.7104 0.89919 2.7674-2.354-1.709-2.3541 1.7104 0.89919-2.7674-2.3541-1.7104h2.9098z" fill="#fff"/>
    <path id="path135" d="m90 8.8456 0.7082 2.1796h2.2918l-1.8541 1.3471 0.7082 2.1796-1.854-1.347-1.854 1.347 0.708-2.18-1.854-1.347h2.2918z" fill="#c00"/>
   </g>
   <g id="g139" transform="matrix(8.5333 0 0 8.5333 101.4 -14.251)">
    <path id="path138" d="m90 20.648 0.75263 2.3164h2.4356l-1.9704 1.4316 0.75263 2.3164-1.972-1.432-1.9704 1.4316 0.75263-2.3164-1.9704-1.4316h2.4356z" fill="#fff"/>
    <path id="path137" d="m90 21.371 0.59017 1.8164h1.9098l-1.5451 1.1226 0.59017 1.8164-1.545-1.122-1.5451 1.1226 0.59017-1.8164-1.5451-1.1226h1.9098z" fill="#c00"/>
   </g>
   <path id="path142" d="m768 372.02 8.4369 25.966h27.302l-22.088 16.048 8.4369 25.966-22.09-16.06-22.088 16.048 8.4369-25.966-22.088-16.048h27.302z" fill-rule="evenodd" fill="#fff"/>
   <path id="path143" d="m768 378.2 7.0506 21.699h22.816l-18.459 13.411 7.0506 21.699-18.46-13.41-18.459 13.411 7.0506-21.699-18.459-13.411h22.816z" fill-rule="evenodd" fill="#c00"/>
  </g>
 </g>
</svg>

<svg id="svg1" xmlns="http://www.w3.org/2000/svg" height="512" width="512" version="1.1"><defs id="defs3"><clipPath id="clipPath6050" clipPathUnits="userSpaceOnUse"><path id="rect6052" fill-opacity=".67" d="M0 0h512v512H0z"/></clipPath></defs><g id="flag" clip-path="url(#clipPath6050)"><path id="rect124" fill="#006" d="M0 0h1024v512H0z"/><path id="path146" d="M0 0v28.622l454.76 227.38H512v-28.62L57.24.002H0zm512 0v28.621L57.24 256.001H0v-28.62L454.76.001H512z" fill="#fff"/><path id="path136" d="M213.33 0v256h85.333V0H213.33zM0 85.333v85.333h512V85.333H0z" stroke-width="1pt" fill="#fff"/><path id="path141" d="M0 102.4v51.2h512v-51.2H0zM230.4 0v256h51.2V0h-51.2z" stroke-width="1pt" fill="#c00"/><path id="path150" d="M0 256l170.67-85.333h38.162l-170.67 85.33H.002zM0 0l170.67 85.333h-38.162L-.002 19.081V0zm303.17 85.333L473.84 0H512L341.33 85.333h-38.162zM512 256.003l-170.67-85.33h38.162l132.51 66.25v19.08z" fill="#c00"/><g id="g5930" transform="translate(-177.29 177.11) scale(.69449)"><g id="g141" transform="scale(8.5333)"><path id="path133" d="M90 7.995l.9 2.767h2.909l-2.354 1.71.9 2.768L90 13.531l-2.354 1.71.9-2.767-2.355-1.71h2.91z" fill="#fff"/><path id="path132" d="M90 8.846l.708 2.18H93l-1.854 1.346.708 2.18L90 13.205l-1.854 1.347.708-2.18L87 11.025h2.292z" fill="#c00"/></g><g id="g132" transform="translate(-118.3 119.03) scale(8.5333)"><path id="path134" d="M90 7.995l.9 2.767h2.909l-2.354 1.71.9 2.768L90 13.531l-2.354 1.71.9-2.767-2.355-1.71h2.91z" fill="#fff"/><path id="path135" d="M90 8.846l.708 2.18H93l-1.854 1.346.708 2.18L90 13.205l-1.854 1.347.708-2.18L87 11.025h2.292z" fill="#c00"/></g><g id="g139" transform="translate(101.4 -14.251) scale(8.5333)"><path id="path138" d="M90 20.648l.753 2.316h2.435l-1.97 1.432.752 2.316-1.972-1.432-1.97 1.432.753-2.316-1.97-1.432h2.435z" fill="#fff"/><path id="path137" d="M90 21.371l.59 1.816h1.91l-1.545 1.123.59 1.816L90 25.004l-1.545 1.123.59-1.816-1.545-1.123h1.91z" fill="#c00"/></g><path id="path142" d="M768 372.02l8.437 25.966h27.302l-22.088 16.048L790.088 440l-22.09-16.06-22.088 16.048 8.437-25.966-22.088-16.048h27.302z" fill-rule="evenodd" fill="#fff"/><path id="path143" d="M768 378.2l7.05 21.699h22.817l-18.46 13.411 7.051 21.699-18.46-13.41-18.459 13.411 7.05-21.699-18.458-13.411h22.816z" fill-rule="evenodd" fill="#c00"/></g></g></svg>
